X: 34204
T: Reel Of Tulloch, The
R: strathspey
M: 4/4
K: Amixolydian
f|:e2 Ac ecAf|e2 Ac dBGf|e2 Ac eAcA|BB/B/cA dBGB:|
cAce cAAB|cAce dBGB|cAce AAcA|BBcA dBGB|cAce aAAB|
cAce gGGB|cAce aAae|gage dBG|gafge fdec|dBcA dBG||
f|:e2 Ac ecAf|e2 Ac dBGf|e2 Ac eAcA|BB/B/cA dBGB:|
cAce cAAB|cAce dBGB|cAce AAcA|BBcA dBGB|cAce aAAB|
cAce gGGB|cAce aAae|gage dBGg|cAce cAAB|cAce dBGB|
cAce AAcA|BBcA dBGB|cAce aAAB|cAce gGGB|afge fdec|dBcA dBG||

